docs/images/icons/cursor_logo.svg

<svg width="68.000000" height="39.000000" viewBox="0 0 68 39" fill="none" xmlns="http://www.w3.org/2000/svg" xmlns:xlink="http://www.w3.org/1999/xlink">
	<desc>
			Created with Pixso.
	</desc>
	<defs/>
	<rect id="Button" rx="6.750000" width="43.000000" height="26.000000" transform="translate(24.500000 12.500000)" fill="#31B970" fill-opacity="1.000000"/>
	<path id="You" d="M37.9541 30.4766L37.9541 26.4365L34.4814 20.6123L36.1904 20.6123L38.7061 24.9668L38.7539 24.9668L41.2695 20.6123L42.9648 20.6123L39.4854 26.4365L39.4854 30.4766L37.9541 30.4766ZM45.7607 30.5654C44.6852 30.5654 43.8307 30.2236 43.1973 29.54C42.5638 28.8564 42.2471 27.9313 42.2471 26.7646C42.2471 25.6025 42.5661 24.6774 43.2041 23.9893C43.8376 23.3011 44.6898 22.957 45.7607 22.957C46.8317 22.957 47.6839 23.2988 48.3174 23.9824C48.9508 24.6706 49.2676 25.598 49.2676 26.7646C49.2676 27.9313 48.9508 28.8564 48.3174 29.54C47.6885 30.2236 46.8363 30.5654 45.7607 30.5654ZM45.7607 29.335C46.3896 29.335 46.8818 29.1094 47.2373 28.6582C47.5882 28.207 47.7637 27.5758 47.7637 26.7646C47.7637 25.9534 47.5882 25.3223 47.2373 24.8711C46.8818 24.4154 46.3896 24.1875 45.7607 24.1875C45.1318 24.1875 44.6396 24.4154 44.2842 24.8711C43.9287 25.3268 43.751 25.958 43.751 26.7646C43.751 27.5713 43.9287 28.2025 44.2842 28.6582C44.6396 29.1094 45.1318 29.335 45.7607 29.335ZM56.9238 30.4766L55.5088 30.4766L55.5088 29.2051L55.4814 29.2051C55.0394 30.1074 54.2396 30.5586 53.082 30.5586C52.2708 30.5586 51.626 30.3125 51.1475 29.8203C50.6644 29.3281 50.4229 28.6582 50.4229 27.8105L50.4229 23.0527L51.9062 23.0527L51.9062 27.5303C51.9062 28.0999 52.0521 28.5352 52.3438 28.8359C52.6354 29.1322 53.0501 29.2803 53.5879 29.2803C54.1439 29.2803 54.5905 29.1025 54.9277 28.7471C55.2695 28.3916 55.4404 27.9199 55.4404 27.332L55.4404 23.0527L56.9238 23.0527L56.9238 30.4766Z" fill="#FFFFFF" fill-opacity="1.000000" fill-rule="evenodd"/>
	<rect id="Button" rx="6.750000" width="43.000000" height="26.000000" transform="translate(24.500000 12.500000)" stroke="#64D598" stroke-opacity="1.000000" stroke-width="1.000000"/>
	<rect id="navigation-fill" width="24.000000" height="24.000000" fill="#FFFFFF" fill-opacity="0"/>
	<path id="Vector" d="M2.89996 2.29999L21.705 8.56799C21.8023 8.60025 21.8874 8.66165 21.9486 8.74388C22.0099 8.82613 22.0444 8.9252 22.0474 9.02769C22.0505 9.13019 22.022 9.23114 21.9657 9.31688C21.9095 9.40262 21.8282 9.46898 21.733 9.50699L13 13L8.57495 21.85C8.52997 21.9401 8.45874 22.0145 8.37073 22.0635C8.28265 22.1124 8.18188 22.1337 8.08154 22.1244C7.98126 22.1151 7.88611 22.0757 7.80853 22.0114C7.73102 21.9471 7.67468 21.8608 7.64697 21.764L2.26001 2.91098C2.23505 2.82339 2.2345 2.73067 2.25836 2.64279C2.28229 2.5549 2.32971 2.47522 2.39557 2.41234C2.46143 2.34944 2.54327 2.30574 2.63214 2.28595C2.72101 2.26614 2.81366 2.271 2.89996 2.29999Z" fill="#31B970" fill-opacity="1.000000" fill-rule="nonzero"/>
	<path id="Vector" d="M13 13L21.733 9.50699C21.8282 9.46898 21.9095 9.40262 21.9657 9.31688C22.022 9.23114 22.0505 9.13019 22.0474 9.02769C22.0444 8.9252 22.0099 8.82613 21.9486 8.74388C21.8874 8.66165 21.8023 8.60025 21.705 8.56799L2.89996 2.29999C2.81366 2.271 2.72101 2.26614 2.63214 2.28595C2.54327 2.30574 2.46143 2.34944 2.39557 2.41234C2.32971 2.47522 2.28229 2.5549 2.25836 2.64279C2.2345 2.73067 2.23505 2.82339 2.26001 2.91098L7.64697 21.764C7.67468 21.8608 7.73102 21.9471 7.80853 22.0114C7.88611 22.0757 7.98126 22.1151 8.08154 22.1244C8.18188 22.1337 8.28265 22.1124 8.37073 22.0635C8.45874 22.0145 8.52997 21.9401 8.57495 21.85L13 13ZM20.0945 9.0853L3.48206 3.54808L8.25531 20.2532L12.2756 12.2127L20.0945 9.0853Z" fill="#64D598" fill-opacity="1.000000" fill-rule="evenodd"/>
</svg>

<svg width="68" height="39" fill="none" xmlns="http://www.w3.org/2000/svg"><rect rx="6.75" width="43" height="26" transform="translate(24.5 12.5)" fill="#31B970"/><path d="M37.954 30.477v-4.04l-3.473-5.825h1.71l2.515 4.355h.048l2.516-4.355h1.695l-3.48 5.825v4.04h-1.53Zm7.807.088c-1.076 0-1.93-.341-2.564-1.025-.633-.684-.95-1.609-.95-2.775 0-1.163.32-2.088.957-2.776.634-.688 1.486-1.032 2.557-1.032 1.07 0 1.923.342 2.556 1.025.634.689.95 1.616.95 2.783 0 1.166-.316 2.091-.95 2.775-.629.684-1.48 1.025-2.556 1.025Zm0-1.23c.629 0 1.12-.226 1.476-.677.351-.451.527-1.082.527-1.893 0-.812-.176-1.443-.527-1.894-.355-.456-.847-.683-1.476-.683-.63 0-1.121.227-1.477.683-.355.456-.533 1.087-.533 1.894 0 .806.178 1.438.533 1.893.356.451.848.677 1.477.677Zm11.163 1.142h-1.415v-1.272h-.028c-.442.902-1.241 1.354-2.399 1.354-.811 0-1.456-.247-1.934-.739-.484-.492-.725-1.162-.725-2.01v-4.757h1.483v4.477c0 .57.146 1.005.438 1.306.291.296.706.444 1.244.444.556 0 1.002-.178 1.34-.533.342-.355.512-.827.512-1.415v-4.28h1.484v7.425Z" fill="#FFF" fill-rule="evenodd"/><rect rx="6.75" width="43" height="26" transform="translate(24.5 12.5)" stroke="#64D598"/><path d="M0 0h24v24H0z"/><path d="m2.9 2.3 18.805 6.268a.5.5 0 0 1 .028.939L13 13l-4.425 8.85a.5.5 0 0 1-.928-.086L2.26 2.911A.5.5 0 0 1 2.9 2.3Z" fill="#31B970"/><path d="m13 13 8.733-3.493a.5.5 0 0 0-.028-.939L2.9 2.3a.5.5 0 0 0-.64.611l5.387 18.853a.5.5 0 0 0 .928.086L13 13Zm7.095-3.915L3.482 3.548l4.773 16.705 4.02-8.04 7.82-3.128Z" fill="#64D598" fill-rule="evenodd"/></svg>
